public/sprite.svg

<svg aria-hidden="true" style="position: absolute; width: 0; height: 0; overflow: hidden;" version="1.1" xmlns="http://www.w3.org/2000/svg" xmlns:xlink="http://www.w3.org/1999/xlink">
<defs>
<symbol id="product" viewBox="0 0 32 32">
<path d="M20 30.333h-8c-7.24 0-10.333-3.093-10.333-10.333v-8c0-7.24 3.093-10.333 10.333-10.333h8c7.24 0 10.333 3.093 10.333 10.333v8c0 7.24-3.093 10.333-10.333 10.333zM12 3.667c-6.147 0-8.333 2.187-8.333 8.333v8c0 6.147 2.187 8.333 8.333 8.333h8c6.147 0 8.333-2.187 8.333-8.333v-8c0-6.147-2.187-8.333-8.333-8.333h-8z"></path>
<path d="M16.001 17.44c-0.173 0-0.347-0.040-0.507-0.133l-7.067-4.080c-0.48-0.28-0.64-0.893-0.36-1.36 0.28-0.48 0.893-0.64 1.36-0.36l6.56 3.8 6.52-3.773c0.48-0.28 1.093-0.107 1.36 0.36s0.107 1.093-0.36 1.36l-7.013 4.053c-0.147 0.080-0.32 0.133-0.493 0.133z"></path>
<path d="M16 24.693c-0.547 0-1-0.453-1-1v-7.253c0-0.547 0.453-1 1-1s1 0.453 1 1v7.253c0 0.547-0.453 1-1 1z"></path>
<path d="M16 25c-0.773 0-1.533-0.173-2.147-0.507l-4.267-2.373c-1.28-0.707-2.267-2.4-2.267-3.867v-4.52c0-1.453 1-3.147 2.267-3.867l4.267-2.373c1.227-0.68 3.067-0.68 4.293 0l4.267 2.373c1.28 0.707 2.267 2.4 2.267 3.867v4.52c0 1.453-1 3.147-2.267 3.867l-4.267 2.373c-0.613 0.347-1.373 0.507-2.147 0.507zM16 9c-0.44 0-0.867 0.080-1.173 0.253l-4.267 2.373c-0.653 0.36-1.24 1.373-1.24 2.107v4.52c0 0.747 0.587 1.747 1.24 2.107l4.267 2.373c0.613 0.347 1.733 0.347 2.347 0l4.267-2.373c0.653-0.36 1.24-1.373 1.24-2.107v-4.52c0-0.747-0.587-1.747-1.24-2.107l-4.267-2.373c-0.307-0.173-0.733-0.253-1.173-0.253z"></path>
</symbol>
<symbol id="cheveron-right" viewBox="0 0 20 20">
<path d="M12.95 10.707l0.707-0.707-5.657-5.657-1.414 1.414 4.242 4.243-4.242 4.243 1.414 1.414 4.95-4.95z"></path>
</symbol>
<symbol id="promote" viewBox="0 0 32 32">
<path d="M16 30.334c-0.84 0-1.627-0.32-2.213-0.92l-2.027-2.027c-0.16-0.16-0.587-0.333-0.8-0.333h-2.88c-1.733 0-3.133-1.4-3.133-3.133v-2.88c0-0.213-0.173-0.64-0.333-0.8l-2.027-2.027c-0.587-0.587-0.92-1.373-0.92-2.213s0.32-1.627 0.92-2.213l2.027-2.027c0.16-0.16 0.333-0.587 0.333-0.8v-2.88c0-1.733 1.4-3.133 3.133-3.133h2.88c0.213 0 0.64-0.173 0.8-0.333l2.027-2.027c1.173-1.173 3.253-1.173 4.427 0l2.027 2.027c0.16 0.16 0.587 0.333 0.8 0.333h2.88c1.733 0 3.133 1.4 3.133 3.133v2.88c0 0.213 0.173 0.64 0.333 0.8l2.027 2.027c0.587 0.587 0.92 1.373 0.92 2.213s-0.32 1.627-0.92 2.213l-2.027 2.027c-0.16 0.16-0.333 0.587-0.333 0.8v2.88c0 1.733-1.4 3.133-3.133 3.133h-2.88c-0.213 0-0.64 0.173-0.8 0.333l-2.027 2.027c-0.587 0.6-1.373 0.92-2.213 0.92zM6.027 18.827c0.533 0.533 0.92 1.467 0.92 2.213v2.88c0 0.627 0.507 1.133 1.133 1.133h2.88c0.747 0 1.68 0.387 2.213 0.92l2.027 2.027c0.427 0.427 1.173 0.427 1.6 0l2.027-2.027c0.533-0.533 1.467-0.92 2.213-0.92h2.88c0.627 0 1.133-0.507 1.133-1.133v-2.88c0-0.747 0.387-1.68 0.92-2.213l2.027-2.027c0.213-0.213 0.333-0.493 0.333-0.8s-0.12-0.587-0.333-0.8l-2.027-2.027c-0.533-0.533-0.92-1.467-0.92-2.213v-2.88c0-0.627-0.507-1.133-1.133-1.133h-2.88c-0.747 0-1.68-0.387-2.213-0.92l-2.027-2.027c-0.427-0.427-1.173-0.427-1.6 0l-2.027 2.027c-0.533 0.533-1.467 0.92-2.213 0.92h-2.88c-0.627 0-1.133 0.507-1.133 1.133v2.88c0 0.747-0.387 1.68-0.92 2.213l-2.027 2.027c-0.213 0.213-0.333 0.493-0.333 0.8s0.12 0.587 0.333 0.8l2.027 2.027z"></path>
<path d="M20 21.333c-0.747 0-1.347-0.6-1.347-1.333s0.6-1.333 1.333-1.333c0.733 0 1.333 0.6 1.333 1.333s-0.587 1.333-1.32 1.333z"></path>
<path d="M12.013 13.333c-0.747 0-1.347-0.6-1.347-1.333s0.6-1.333 1.333-1.333c0.733 0 1.333 0.6 1.333 1.333s-0.587 1.333-1.32 1.333z"></path>
<path d="M11.999 20.999c-0.253 0-0.507-0.093-0.707-0.293-0.387-0.387-0.387-1.027 0-1.413l8-8c0.387-0.387 1.027-0.387 1.413 0s0.387 1.027 0 1.413l-8 8c-0.2 0.2-0.453 0.293-0.707 0.293z"></path>
</symbol>
<symbol id="dashboard" viewBox="0 0 24 24">
<path d="M9 22H15C20 22 22 20 22 15V9C22 4 20 2 15 2H9C4 2 2 4 2 9V15C2 20 4 22 9 22Z"  stroke-width="1.5" stroke-linecap="round" stroke-linejoin="round"/>
<path d="M16.28 13.61C15.15 14.74 13.53 15.09 12.1 14.64L9.51001 17.22C9.33001 17.41 8.96001 17.53 8.69001 17.49L7.49001 17.33C7.09001 17.28 6.73001 16.9 6.67001 16.51L6.51001 15.31C6.47001 15.05 6.60001 14.68 6.78001 14.49L9.36001 11.91C8.92001 10.48 9.26001 8.86001 10.39 7.73001C12.01 6.11001 14.65 6.11001 16.28 7.73001C17.9 9.34001 17.9 11.98 16.28 13.61Z"  stroke-width="1.5" stroke-miterlimit="10" stroke-linecap="round" stroke-linejoin="round"/>
<path d="M10.45 16.28L9.59998 15.42"  stroke-width="1.5" stroke-miterlimit="10" stroke-linecap="round" stroke-linejoin="round"/>
<path d="M13.3945 10.7H13.4035"  stroke-width="2" stroke-linecap="round" stroke-linejoin="round"/>
</symbol>
<symbol id="help" viewBox="0 0 32 32">
<path d="M10.667 29.76c-0.373 0-0.76-0.093-1.107-0.28-0.76-0.4-1.227-1.2-1.227-2.053v-1.893c-4.027-0.413-6.667-3.373-6.667-7.613v-8c0-4.587 3.080-7.667 7.667-7.667h13.333c4.587 0 7.667 3.080 7.667 7.667v8c0 4.587-3.080 7.667-7.667 7.667h-5.027l-5.68 3.787c-0.387 0.253-0.84 0.387-1.293 0.387zM9.333 4.24c-3.44 0-5.667 2.227-5.667 5.667v8c0 3.44 2.227 5.667 5.667 5.667 0.547 0 1 0.453 1 1v2.84c0 0.173 0.107 0.253 0.173 0.293s0.2 0.080 0.347-0.013l5.933-3.947c0.16-0.107 0.36-0.173 0.56-0.173h5.333c3.44 0 5.667-2.227 5.667-5.667v-8c0-3.44-2.227-5.667-5.667-5.667h-13.347z"></path>
<path d="M16 16.147c-0.547 0-1-0.453-1-1v-0.28c0-1.547 1.133-2.307 1.56-2.6 0.493-0.333 0.653-0.56 0.653-0.907 0-0.667-0.547-1.213-1.213-1.213s-1.213 0.547-1.213 1.213c0 0.547-0.453 1-1 1s-1-0.453-1-1c0-1.773 1.44-3.213 3.213-3.213s3.213 1.44 3.213 3.213c0 1.52-1.12 2.28-1.533 2.56-0.52 0.347-0.68 0.573-0.68 0.947v0.28c0 0.56-0.453 1-1 1z"></path>
<path d="M16 19.467c-0.56 0-1-0.453-1-1s0.453-1 1-1c0.547 0 1 0.453 1 1s-0.44 1-1 1z"></path>
</symbol>
<symbol id="search" viewBox="0 0 32 32">
<path stroke-linejoin="round" stroke-linecap="round" stroke-miterlimit="4" stroke-width="2.6667" d="M14.667 25.333c5.891 0 10.667-4.776 10.667-10.667s-4.776-10.667-10.667-10.667c-5.891 0-10.667 4.776-10.667 10.667s4.776 10.667 10.667 10.667z"></path>
<path stroke-linejoin="round" stroke-linecap="round" stroke-miterlimit="4" stroke-width="2.6667" d="M28 28l-5.8-5.8"></path>
</symbol>
<symbol id="logo" viewBox="0 0 32 32">
<path d="M16 30.173c-0.893 0-1.8-0.2-2.507-0.613l-7.333-4.227c-2.987-2.013-3.173-2.32-3.173-5.48v-7.707c0-3.16 0.173-3.467 3.107-5.453l7.387-4.267c1.4-0.813 3.6-0.813 5 0l7.36 4.24c2.987 2.013 3.173 2.32 3.173 5.48v7.693c0 3.16-0.173 3.467-3.107 5.453l-7.387 4.267c-0.72 0.413-1.627 0.613-2.52 0.613zM16 3.826c-0.56 0-1.107 0.107-1.493 0.333l-7.333 4.24c-2.173 1.467-2.173 1.467-2.173 3.747v7.693c0 2.28 0 2.28 2.227 3.787l7.28 4.2c0.787 0.453 2.213 0.453 3 0l7.333-4.24c2.16-1.467 2.16-1.467 2.16-3.747v-7.693c0-2.28 0-2.28-2.227-3.787l-7.28-4.2c-0.387-0.227-0.933-0.333-1.493-0.333z"></path>
<path d="M16 21c-2.76 0-5-2.24-5-5s2.24-5 5-5c2.76 0 5 2.24 5 5s-2.24 5-5 5zM16 13c-1.653 0-3 1.347-3 3s1.347 3 3 3c1.653 0 3-1.347 3-3s-1.347-3-3-3z"></path>
</symbol>
<symbol id="customers" viewBox="0 0 24 24">
<path d="M15.0006 22.7498H9.00063C7.68063 22.7498 6.58063 22.6198 5.65063 22.3398C5.31063 22.2398 5.09063 21.9098 5.11063 21.5598C5.36063 18.5698 8.39063 16.2197 12.0006 16.2197C15.6106 16.2197 18.6306 18.5598 18.8906 21.5598C18.9206 21.9198 18.7006 22.2398 18.3506 22.3398C17.4206 22.6198 16.3206 22.7498 15.0006 22.7498ZM6.72063 21.0598C7.38063 21.1898 8.13063 21.2498 9.00063 21.2498H15.0006C15.8706 21.2498 16.6206 21.1898 17.2806 21.0598C16.7506 19.1398 14.5606 17.7197 12.0006 17.7197C9.44063 17.7197 7.25063 19.1398 6.72063 21.0598Z"/>
<path d="M15 2H9C4 2 2 4 2 9V15C2 18.78 3.14 20.85 5.86 21.62C6.08 19.02 8.75 16.97 12 16.97C15.25 16.97 17.92 19.02 18.14 21.62C20.86 20.85 22 18.78 22 15V9C22 4 20 2 15 2ZM12 14.17C10.02 14.17 8.42 12.56 8.42 10.58C8.42 8.60002 10.02 7 12 7C13.98 7 15.58 8.60002 15.58 10.58C15.58 12.56 13.98 14.17 12 14.17Z" stroke-width="1.5" stroke-linecap="round" stroke-linejoin="round"/>
<path d="M11.9999 14.92C9.60992 14.92 7.66992 12.97 7.66992 10.58C7.66992 8.19002 9.60992 6.25 11.9999 6.25C14.3899 6.25 16.3299 8.19002 16.3299 10.58C16.3299 12.97 14.3899 14.92 11.9999 14.92ZM11.9999 7.75C10.4399 7.75 9.16992 9.02002 9.16992 10.58C9.16992 12.15 10.4399 13.42 11.9999 13.42C13.5599 13.42 14.8299 12.15 14.8299 10.58C14.8299 9.02002 13.5599 7.75 11.9999 7.75Z"/>
</symbol>
<symbol id="income" viewBox="0 0 24 24">
<path d="M10.7516 16.8604V18.8904C10.7516 20.6104 9.15158 22.0004 7.18158 22.0004C5.21158 22.0004 3.60156 20.6104 3.60156 18.8904V16.8604C3.60156 18.5804 5.20158 19.8004 7.18158 19.8004C9.15158 19.8004 10.7516 18.5704 10.7516 16.8604Z" stroke-width="1.5" stroke-linecap="round" stroke-linejoin="round"/>
<path d="M10.7501 14.11C10.7501 14.61 10.6101 15.07 10.3701 15.47C9.78006 16.44 8.57004 17.05 7.17004 17.05C5.77004 17.05 4.56003 16.43 3.97003 15.47C3.73003 15.07 3.59009 14.61 3.59009 14.11C3.59009 13.25 3.99007 12.48 4.63007 11.92C5.28007 11.35 6.17003 11.01 7.16003 11.01C8.15003 11.01 9.04006 11.36 9.69006 11.92C10.3501 12.47 10.7501 13.25 10.7501 14.11Z" stroke-width="1.5" stroke-linecap="round" stroke-linejoin="round"/>
<path d="M10.7516 14.11V16.86C10.7516 18.58 9.15158 19.8 7.18158 19.8C5.21158 19.8 3.60156 18.57 3.60156 16.86V14.11C3.60156 12.39 5.20158 11 7.18158 11C8.17158 11 9.06161 11.35 9.71161 11.91C10.3516 12.47 10.7516 13.25 10.7516 14.11Z" stroke-width="1.5" stroke-linecap="round" stroke-linejoin="round"/>
<path d="M22 10.9699V13.03C22 13.58 21.56 14.0299 21 14.0499H19.0399C17.9599 14.0499 16.97 13.2599 16.88 12.1799C16.82 11.5499 17.0599 10.9599 17.4799 10.5499C17.8499 10.1699 18.36 9.94995 18.92 9.94995H21C21.56 9.96995 22 10.4199 22 10.9699Z" stroke-width="1.5" stroke-linecap="round" stroke-linejoin="round"/>
<path d="M2 10.5V8.5C2 5.78 3.64 3.88 6.19 3.56C6.45 3.52 6.72 3.5 7 3.5H16C16.26 3.5 16.51 3.50999 16.75 3.54999C19.33 3.84999 21 5.76 21 8.5V9.95001H18.92C18.36 9.95001 17.85 10.17 17.48 10.55C17.06 10.96 16.82 11.55 16.88 12.18C16.97 13.26 17.96 14.05 19.04 14.05H21V15.5C21 18.5 19 20.5 16 20.5H13.5" stroke-width="1.5" stroke-linecap="round" stroke-linejoin="round"/>
</symbol>
<symbol id="user" viewBox="0 0 32 32">
<path d="M18 22.082v-1.649c2.203-1.241 4-4.337 4-7.432 0-4.971 0-9-6-9s-6 4.029-6 9c0 3.096 1.797 6.191 4 7.432v1.649c-6.784 0.555-12 3.888-12 7.918h28c0-4.030-5.216-7.364-12-7.918z"></path>
</symbol>
</defs>
</svg>

<svg aria-hidden="true" style="position:absolute;width:0;height:0;overflow:hidden" xmlns="http://www.w3.org/2000/svg"><defs><symbol id="product" viewBox="0 0 32 32"><path d="M20 30.333h-8C4.76 30.333 1.667 27.24 1.667 20v-8C1.667 4.76 4.76 1.667 12 1.667h8c7.24 0 10.333 3.093 10.333 10.333v8c0 7.24-3.093 10.333-10.333 10.333zM12 3.667c-6.147 0-8.333 2.187-8.333 8.333v8c0 6.147 2.187 8.333 8.333 8.333h8c6.147 0 8.333-2.187 8.333-8.333v-8c0-6.147-2.187-8.333-8.333-8.333h-8z"/><path d="M16.001 17.44a1 1 0 0 1-.507-.133l-7.067-4.08a.99.99 0 0 1-.36-1.36.99.99 0 0 1 1.36-.36l6.56 3.8 6.52-3.773c.48-.28 1.093-.107 1.36.36s.107 1.093-.36 1.36l-7.013 4.053a1.05 1.05 0 0 1-.493.133z"/><path d="M16 24.693c-.547 0-1-.453-1-1V16.44c0-.547.453-1 1-1s1 .453 1 1v7.253c0 .547-.453 1-1 1z"/><path d="M16 25c-.773 0-1.533-.173-2.147-.507L9.586 22.12c-1.28-.707-2.267-2.4-2.267-3.867v-4.52c0-1.453 1-3.147 2.267-3.867l4.267-2.373c1.227-.68 3.067-.68 4.293 0l4.267 2.373c1.28.707 2.267 2.4 2.267 3.867v4.52c0 1.453-1 3.147-2.267 3.867l-4.267 2.373c-.613.347-1.373.507-2.147.507zm0-16c-.44 0-.867.08-1.173.253l-4.267 2.373c-.653.36-1.24 1.373-1.24 2.107v4.52c0 .747.587 1.747 1.24 2.107l4.267 2.373c.613.347 1.733.347 2.347 0l4.267-2.373c.653-.36 1.24-1.373 1.24-2.107v-4.52c0-.747-.587-1.747-1.24-2.107l-4.267-2.373C16.867 9.08 16.441 9 16.001 9z"/></symbol><symbol id="cheveron-right" viewBox="0 0 20 20"><path d="m12.95 10.707.707-.707L8 4.343 6.586 5.757 10.828 10l-4.242 4.243L8 15.657l4.95-4.95z"/></symbol><symbol id="promote" viewBox="0 0 32 32"><path d="M16 30.334a3.06 3.06 0 0 1-2.213-.92l-2.027-2.027c-.16-.16-.587-.333-.8-.333H8.08a3.13 3.13 0 0 1-3.133-3.133v-2.88c0-.213-.173-.64-.333-.8l-2.027-2.027c-.587-.587-.92-1.373-.92-2.213s.32-1.627.92-2.213l2.027-2.027c.16-.16.333-.587.333-.8v-2.88A3.13 3.13 0 0 1 8.08 4.948h2.88c.213 0 .64-.173.8-.333l2.027-2.027c1.173-1.173 3.253-1.173 4.427 0l2.027 2.027c.16.16.587.333.8.333h2.88a3.13 3.13 0 0 1 3.133 3.133v2.88c0 .213.173.64.333.8l2.027 2.027c.587.587.92 1.373.92 2.213s-.32 1.627-.92 2.213l-2.027 2.027c-.16.16-.333.587-.333.8v2.88a3.13 3.13 0 0 1-3.133 3.133h-2.88c-.213 0-.64.173-.8.333l-2.027 2.027c-.587.6-1.373.92-2.213.92zM6.027 18.827c.533.533.92 1.467.92 2.213v2.88c0 .627.507 1.133 1.133 1.133h2.88c.747 0 1.68.387 2.213.92L15.2 28a1.16 1.16 0 0 0 1.6 0l2.027-2.027c.533-.533 1.467-.92 2.213-.92h2.88c.627 0 1.133-.507 1.133-1.133v-2.88c0-.747.387-1.68.92-2.213L28 16.8c.213-.213.333-.493.333-.8s-.12-.587-.333-.8l-2.027-2.027c-.533-.533-.92-1.467-.92-2.213V8.08c0-.627-.507-1.133-1.133-1.133h-2.88c-.747 0-1.68-.387-2.213-.92L16.8 4a1.16 1.16 0 0 0-1.6 0l-2.027 2.027c-.533.533-1.467.92-2.213.92H8.08c-.627 0-1.133.507-1.133 1.133v2.88c0 .747-.387 1.68-.92 2.213L4 15.2c-.213.213-.333.493-.333.8s.12.587.333.8l2.027 2.027z"/><path d="M20 21.333c-.747 0-1.347-.6-1.347-1.333s.6-1.333 1.333-1.333 1.333.6 1.333 1.333-.587 1.333-1.32 1.333zM12.013 13.333c-.747 0-1.347-.6-1.347-1.333s.6-1.333 1.333-1.333 1.333.6 1.333 1.333-.587 1.333-1.32 1.333zM11.999 20.999a.99.99 0 0 1-.707-.293 1.005 1.005 0 0 1 0-1.413l8-8c.387-.387 1.027-.387 1.413 0s.387 1.027 0 1.413l-8 8c-.2.2-.453.293-.707.293z"/></symbol><symbol id="dashboard" viewBox="0 0 24 24"><path d="M9 22h6c5 0 7-2 7-7V9c0-5-2-7-7-7H9C4 2 2 4 2 9v6c0 5 2 7 7 7Z" stroke-width="1.5" stroke-linecap="round" stroke-linejoin="round"/><path d="M16.28 13.61a4.147 4.147 0 0 1-4.18 1.03l-2.59 2.58c-.18.19-.55.31-.82.27l-1.2-.16c-.4-.05-.76-.43-.82-.82l-.16-1.2c-.04-.26.09-.63.27-.82l2.58-2.58c-.44-1.43-.1-3.05 1.03-4.18 1.62-1.62 4.26-1.62 5.89 0 1.62 1.61 1.62 4.25 0 5.88ZM10.45 16.28l-.85-.86" stroke-width="1.5" stroke-miterlimit="10" stroke-linecap="round" stroke-linejoin="round"/><path d="M13.395 10.7h.008" stroke-width="2" stroke-linecap="round" stroke-linejoin="round"/></symbol><symbol id="help" viewBox="0 0 32 32"><path d="M10.667 29.76a2.35 2.35 0 0 1-1.107-.28c-.76-.4-1.227-1.2-1.227-2.053v-1.893c-4.027-.413-6.667-3.373-6.667-7.613v-8c0-4.587 3.08-7.667 7.667-7.667h13.333c4.587 0 7.667 3.08 7.667 7.667v8c0 4.587-3.08 7.667-7.667 7.667h-5.027l-5.68 3.787c-.387.253-.84.387-1.293.387zM9.333 4.24c-3.44 0-5.667 2.227-5.667 5.667v8c0 3.44 2.227 5.667 5.667 5.667.547 0 1 .453 1 1v2.84c0 .173.107.253.173.293s.2.08.347-.013l5.933-3.947c.16-.107.36-.173.56-.173h5.333c3.44 0 5.667-2.227 5.667-5.667v-8c0-3.44-2.227-5.667-5.667-5.667H9.332z"/><path d="M16 16.147c-.547 0-1-.453-1-1v-.28c0-1.547 1.133-2.307 1.56-2.6.493-.333.653-.56.653-.907 0-.667-.547-1.213-1.213-1.213s-1.213.547-1.213 1.213c0 .547-.453 1-1 1s-1-.453-1-1c0-1.773 1.44-3.213 3.213-3.213s3.213 1.44 3.213 3.213c0 1.52-1.12 2.28-1.533 2.56-.52.347-.68.573-.68.947v.28c0 .56-.453 1-1 1zM16 19.467c-.56 0-1-.453-1-1s.453-1 1-1c.547 0 1 .453 1 1s-.44 1-1 1z"/></symbol><symbol id="search" viewBox="0 0 32 32"><path stroke-linejoin="round" stroke-linecap="round" stroke-width="2.667" d="M14.667 25.333c5.891 0 10.667-4.776 10.667-10.667S20.558 3.999 14.667 3.999 4 8.775 4 14.666s4.776 10.667 10.667 10.667zM28 28l-5.8-5.8"/></symbol><symbol id="logo" viewBox="0 0 32 32"><path d="M16 30.173c-.893 0-1.8-.2-2.507-.613L6.16 25.333c-2.987-2.013-3.173-2.32-3.173-5.48v-7.707c0-3.16.173-3.467 3.107-5.453l7.387-4.267c1.4-.813 3.6-.813 5 0l7.36 4.24c2.987 2.013 3.173 2.32 3.173 5.48v7.693c0 3.16-.173 3.467-3.107 5.453l-7.387 4.267c-.72.413-1.627.613-2.52.613zm0-26.347c-.56 0-1.107.107-1.493.333l-7.333 4.24c-2.173 1.467-2.173 1.467-2.173 3.747v7.693c0 2.28 0 2.28 2.227 3.787l7.28 4.2c.787.453 2.213.453 3 0l7.333-4.24c2.16-1.467 2.16-1.467 2.16-3.747v-7.693c0-2.28 0-2.28-2.227-3.787l-7.28-4.2c-.387-.227-.933-.333-1.493-.333z"/><path d="M16 21c-2.76 0-5-2.24-5-5s2.24-5 5-5 5 2.24 5 5-2.24 5-5 5zm0-8c-1.653 0-3 1.347-3 3s1.347 3 3 3 3-1.347 3-3-1.347-3-3-3z"/></symbol><symbol id="customers" viewBox="0 0 24 24"><path d="M15 22.75H9c-1.32 0-2.42-.13-3.35-.41a.767.767 0 0 1-.54-.78c.25-2.99 3.28-5.34 6.89-5.34s6.63 2.34 6.89 5.34c.03.36-.19.68-.54.78-.93.28-2.03.41-3.35.41Zm-8.28-1.69c.66.13 1.41.19 2.28.19h6c.87 0 1.62-.06 2.28-.19-.53-1.92-2.72-3.34-5.28-3.34s-4.75 1.42-5.28 3.34Z"/><path d="M15 2H9C4 2 2 4 2 9v6c0 3.78 1.14 5.85 3.86 6.62.22-2.6 2.89-4.65 6.14-4.65 3.25 0 5.92 2.05 6.14 4.65C20.86 20.85 22 18.78 22 15V9c0-5-2-7-7-7Zm-3 12.17c-1.98 0-3.58-1.61-3.58-3.59C8.42 8.6 10.02 7 12 7s3.58 1.6 3.58 3.58-1.6 3.59-3.58 3.59Z" stroke-width="1.5" stroke-linecap="round" stroke-linejoin="round"/><path d="M12 14.92a4.34 4.34 0 0 1-4.33-4.34c0-2.39 1.94-4.33 4.33-4.33s4.33 1.94 4.33 4.33A4.34 4.34 0 0 1 12 14.92Zm0-7.17a2.836 2.836 0 0 0 0 5.67 2.836 2.836 0 0 0 0-5.67Z"/></symbol><symbol id="income" viewBox="0 0 24 24"><path d="M10.752 16.86v2.03c0 1.72-1.6 3.11-3.57 3.11-1.97 0-3.58-1.39-3.58-3.11v-2.03c0 1.72 1.6 2.94 3.58 2.94 1.97 0 3.57-1.23 3.57-2.94Z" stroke-width="1.5" stroke-linecap="round" stroke-linejoin="round"/><path d="M10.75 14.11c0 .5-.14.96-.38 1.36-.59.97-1.8 1.58-3.2 1.58-1.4 0-2.61-.62-3.2-1.58-.24-.4-.38-.86-.38-1.36 0-.86.4-1.63 1.04-2.19.65-.57 1.54-.91 2.53-.91.99 0 1.88.35 2.53.91.66.55 1.06 1.33 1.06 2.19Z" stroke-width="1.5" stroke-linecap="round" stroke-linejoin="round"/><path d="M10.752 14.11v2.75c0 1.72-1.6 2.94-3.57 2.94-1.97 0-3.58-1.23-3.58-2.94v-2.75c0-1.72 1.6-3.11 3.58-3.11.99 0 1.88.35 2.53.91.64.56 1.04 1.34 1.04 2.2ZM22 10.97v2.06c0 .55-.44 1-1 1.02h-1.96c-1.08 0-2.07-.79-2.16-1.87-.06-.63.18-1.22.6-1.63.37-.38.88-.6 1.44-.6H21c.56.02 1 .47 1 1.02Z" stroke-width="1.5" stroke-linecap="round" stroke-linejoin="round"/><path d="M2 10.5v-2c0-2.72 1.64-4.62 4.19-4.94.26-.04.53-.06.81-.06h9c.26 0 .51.01.75.05C19.33 3.85 21 5.76 21 8.5v1.45h-2.08c-.56 0-1.07.22-1.44.6-.42.41-.66 1-.6 1.63.09 1.08 1.08 1.87 2.16 1.87H21v1.45c0 3-2 5-5 5h-2.5" stroke-width="1.5" stroke-linecap="round" stroke-linejoin="round"/></symbol><symbol id="user" viewBox="0 0 32 32"><path d="M18 22.082v-1.649c2.203-1.241 4-4.337 4-7.432 0-4.971 0-9-6-9s-6 4.029-6 9c0 3.096 1.797 6.191 4 7.432v1.649C7.216 22.637 2 25.97 2 30h28c0-4.03-5.216-7.364-12-7.918z"/></symbol></defs></svg>
